svg/all_inclusive_box_outline.svg

<svg xmlns="http://www.w3.org/2000/svg" viewBox="0 0 24 24"><path d="M19 12c0 1.84-1.5 3.34-3.34 3.34-.89 0-1.72-.34-2.35-.98l-.6-.6 1.06-1.05c.27.29.6.59.6.59.34.35.81.54 1.3.54 1.01 0 1.83-.84 1.83-1.84s-.82-1.84-1.83-1.84c-.49 0-.96.2-1.3.54l-3.67 3.66c-.63.64-1.47.98-2.36.98C6.5 15.34 5 13.84 5 12s1.5-3.34 3.34-3.34c.89 0 1.73.34 2.36.98l.59.6-1.06 1.06-.59-.6c-.35-.34-.81-.54-1.3-.54-1.02 0-1.84.84-1.84 1.84s.82 1.84 1.84 1.84c.49 0 .95-.19 1.3-.54l3.67-3.66c.63-.64 1.46-.98 2.35-.98C17.5 8.66 19 10.16 19 12m2-7v14c0 1.11-.89 2-2 2H5a2 2 0 0 1-2-2V5c0-1.11.89-2 2-2h14a2 2 0 0 1 2 2m-2 0H5v14h14z"/></svg>

<svg xmlns="http://www.w3.org/2000/svg" id="mdi-all-inclusive-box-outline" viewBox="0 0 24 24"><path d="M19 12C19 13.84 17.5 15.34 15.66 15.34C14.77 15.34 13.94 15 13.31 14.36L12.71 13.76L13.77 12.71C14.04 13 14.37 13.3 14.37 13.3C14.71 13.65 15.18 13.84 15.67 13.84C16.68 13.84 17.5 13 17.5 12S16.68 10.16 15.67 10.16C15.18 10.16 14.71 10.36 14.37 10.7L10.7 14.36C10.07 15 9.23 15.34 8.34 15.34C6.5 15.34 5 13.84 5 12S6.5 8.66 8.34 8.66C9.23 8.66 10.07 9 10.7 9.64L11.29 10.24L10.23 11.3L9.64 10.7C9.29 10.36 8.83 10.16 8.34 10.16C7.32 10.16 6.5 11 6.5 12S7.32 13.84 8.34 13.84C8.83 13.84 9.29 13.65 9.64 13.3L13.31 9.64C13.94 9 14.77 8.66 15.66 8.66C17.5 8.66 19 10.16 19 12M21 5V19C21 20.11 20.11 21 19 21H5C3.9 21 3 20.11 3 19V5C3 3.89 3.89 3 5 3H19C20.1 3 21 3.89 21 5M19 5H5V19H19V5Z" /></svg>
